X: 879
T: Gönül Mazhardır Envâr-ı Cemâle
C: Hâfız Hüsnü Efendi (Enderûnlu)
O: Turkey
F: http://compmusic.upf.edu/node/140
N: beyati-araban--ilahi--duyek--gonul_mazhardir--enderunlu_hafiz_husnu_efendi
N: makam= beyati-araban
N: form= ilahi
N: usul= duyek = 8/4
M: 8/4
L: 1/16
K: C _1/4B _7/8e ^f 
Q: 1/4=144
%%MIDI tuningsystem comma53
g2 ga g2 a2 a4 a4  | a2 _ba g2 ab ag ^3/4f_3/4e d4  | \
w:  Gö nül  *  *  *  maz har  |  dır_ en *  *  *  *  vâr_ *  *  *  ı   | 
c2 d4 _3/4e2 ^3/4f2 ef g2 fe  | 
w:  ce mâ  | 
d2 c'4 _ba ag ^3/4fg a4  | g2 ga g2 a2 a4 a4  | \
w:  le    |  Gö nül  *  *  *  maz har  | 
a2 _ba g2 ab ag ^3/4f_3/4e d4  | 
w:  dır_ en *  *  *  *  vâr_ *  *  *  ı   | 
c2 d4 _3/4e2 ^3/4f2 ef g2 fe  | d2 =f6 fg f=e f4  | \
w:  ce mâ  |  le    | 
=e2 =f4 e2 f3e f2 {g}fe  | 
w:  Gö nül  *  gül *  dür   | 
g2 g4 ^3/4f2 _3/4e3d c_2/4B c2  | \
w:  gö nül  *  gül *  dür   | 
_2/4B2 d4 B2 B3A c2 BA  | A3B c2 d2 =e2 g2 =f4  | 
w:  ce mâ  |  le    | 
=e2 =f4 e2 f3e f2 {g}fe  | g2 g4 ^3/4f2 _3/4e3d c_2/4B c2  | \
w:  Gö nül  *  gül *  dür   |  gö nül  *  gül *  dür   | 
_2/4B2 d4 B2 B3A c2 BA  | 
w:  ce mâ  | 
G2 A8-A2 z4  | g2 ga g2 a2 a4 a4  | a2 _ba g2 ab ag ^3/4f_3/4e d4  | 
w:  le    |  Hü dâ  *  *  *  yak maz   |  â nı  *  *  *  *  nâr_ *  *  *  ı   | 
c2 d4 _3/4e2 ^3/4f2 ef g2 fe  | d2 c'4 _ba ag ^3/4fg a4  | \
w:  ce lâ  |  le    | 
g2 ga g2 a2 a4 a4  | 
w:  Hü dâ  *  *  *  yak maz   | 
a2 _ba g2 ab ag ^3/4f_3/4e d4  | c2 d4 _3/4e2 ^3/4f2 ef g2 fe  | \
w:  â nı  *  *  *  *  nâr_ *  *  *  ı   |  ce lâ  | 
d2 =f6 fg f=e f4  | 
w:  le    | 
=e2 =f4 e2 f3e f2 {g}fe  | g2 g4 ^3/4f2 _3/4e3d c_2/4B c2  | \
w:  Gö nül  *  gül *  dür   |  gö nül  *  gül *  dür   | 
_2/4B2 c4 B2 B3A c2 BA  | 
w:  ce mâ  | 
A3B c2 d2 =e2 g2 =f4  | =e2 =f4 e2 f3e f2 {g}fe  | \
w:  le    |  Gö nül  *  gül *  dür   | 
g2 g4 ^3/4f2 _3/4e3d c_2/4B c2  | 
w:  gö nül  *  gül *  dür   | 
_2/4B2 c4 B2 B3A c2 BA  | G2 A8-A2 z4  | \
w:  ce mâ  |  le    | 
g2 ga g2 a2 a4 a4  | a2 _ba g2 ab ag ^3/4f_3/4e d4  | 
w:  Gö nül  *  *  *  maz har  |  dır_ en *  *  *  *  vâr_ *  *  *  ı   | 
c2 d4 _3/4e2 ^3/4f2 ef g2 fe  | d2 c'4 _ba ag ^3/4fg a4  | \
w:  ce mâ  |  le    | 
g2 ga g2 a2 a4 a4  | 
w:  Gö nül  *  *  *  maz har  | 
a2 _ba g2 ab ag ^3/4f_3/4e d4  | c2 d4 _3/4e2 ^3/4f2 ef g2 fe  | \
w:  dır_ en *  *  *  *  vâr_ *  *  *  ı   |  ce mâ  | 
d2 =f6 fg f=e f4  | 
w:  le    | 
=e2 =f4 e2 f3e f2 {g}fe  | g2 g4 ^3/4f2 _3/4e3d c_2/4B c2  | \
w:  Gö nül  *  gül *  dür   |  gö nül  *  gül *  dür   | 
_2/4B2 d4 B2 B3A c2 BA  | 
w:  ce mâ  | 
A3B c2 d2 =e2 g2 =f4  | =e2 =f4 e2 f3e f2 {g}fe  | \
w:  le    |  Gö nül  *  gül *  dür   | 
g2 g4 ^3/4f2 _3/4e3d c_2/4B c2  | 
w:  gö nül  *  gül *  dür   | 
_2/4B2 d4 B2 B3A c2 BA  | G2 A8-A2 z4  | \
w:  ce mâ  |  le    | 
g2 ga g2 a2 a4 a4  | a2 _ba g2 ab ag ^3/4f_3/4e d4  | 
w:  Hü dâ  *  *  *  yak maz   |  â nı  *  *  *  *  nâr_ *  *  *  ı   | 
c2 d4 _3/4e2 ^3/4f2 ef g2 fe  | d2 c'4 _ba ag ^3/4fg a4  | \
w:  ce lâ  |  le    | 
g2 ga g2 a2 a4 a4  | 
w:  Hü dâ  *  *  *  yak maz   | 
a2 _ba g2 ab ag ^3/4f_3/4e d4  | c2 d4 _3/4e2 ^3/4f2 ef g2 fe  | \
w:  â nı  *  *  *  *  nâr_ *  *  *  ı   |  ce lâ  | 
d2 =f6 fg f=e f4  | 
w:  le    | 
=e2 =f4 e2 f3e f2 {g}fe  | g2 g4 ^3/4f2 _3/4e3d c_2/4B c2  | \
w:  Gö nül  *  gül *  dür   |  gö nül  *  gül *  dür   | 
_2/4B2 c4 B2 B3A c2 BA  | 
w:  ce mâ  | 
A3B c2 d2 =e2 g2 =f4  | =e2 =f4 e2 f3e f2 {g}fe  | \
w:  le    |  Gö nül  *  gül *  dür   | 
g2 g4 ^3/4f2 _3/4e3d c_2/4B c2  | 
w:  gö nül  *  gül *  dür   | 
_2/4B2 c4 B2 B3A c2 BA  | G2 A8-A2 z4  | |


